X: 18
T: No_26_Song_of_a_Woman-spirit.krn
N: Derived from No_26_Song_of_a_Woman-spirit.krn
%%abc-version 2.0
%%abcx-abcm2ps-target-version 5.9.1 (29 Sep 2008)
%%abc-creator hum2abc beta
%%abcx-conversion-date 2019/03/15 08:27:55
%%humdrum-veritas 3628549814
%%humdrum-veritas-data 2588290429
%%linebreak <none>
%%barnumbers 0
L: 1/8
M: 2/4
K: D clef=bass
[K:clef=bass][M:2/4](3DDD(D2 | 
(3A,)A,A, A, z ]|:  
(3DDD D3/D/ | 
(3A,A,A, A, z | 
(3F,F,F, F,3/F,/ | 
[M:3/4](3E,E,E, E,3/E,/ D, z | 
[M:2/4](3F,F,F, F,3/F,/ | 
(3E,E,E, E,3/E,/ | 
[M:3/4](3D,D,D,D,2A,, z | 
[M:2/4](3E,E,E, E,3/E,/ | 
[M:3/4](3D,D,D,D,2A,, z | 
[M:2/4](3B,,A,,A,, A,,3/A,,/ | 
A,,2A,, z :|]  



